!!!OTL: Sangeslohn In dieser abendstunde
!!!ARE: Europa, Mitteleuropa, Deutschland
!!!YOR: 6, S. 60
!!    1649 gedruckt
!!!SCT: Q0124C
!!!YEM: Copyright 1995, estate of Helmut Schaffrath.
**kern
*ICvox
*Ivox
*M3/2
*k[b-]
*F:
=1
{2f
2f
2f
=2
1f
2d
=3
1c
2g
=4
1g}
{2g
=5
1b-
2b-
=6
2a
1g
=7
1.f}
=8
{2b-
2b-
2b-
=9
1b-
2a
=10
1.g
=11
1g}
{2a
=12
1cc
2cc
=13
1b-
2a
=14
1g}
{2g
=15
1b-
2b-
=16
2a
1g
=17
1.f}
==
!!!AGN: geistlich
!! Tonangabe zur Ballade "Sangeslohn" - moegliche Melodie (??) .
!!!ONB: ESAC (Essen Associative Code) Database: BALLADE
!!!AMT: simple triple
!!!AIN: vox
!!!EED: Helmut Schaffrath
!!!EEV: 1.0
*-
